!!!COA: Josquin des Prez
!!!CDT: ~1450-1521/08/27
!!!COM: Isaac
!!!OTL@@LAT: Virgo prudentissima
!!!AGN: Motet
!!!SCT: NJE 25.12
!!!SCA: New Josquin Edition 25.12
!!!voices: 4
**kern	**text	**kern	**text	**kern	**text	**kern	**text
*staff4	*staff4	*staff3	*staff3	*staff2	*staff2	*staff1	*staff1
*Ivox	*	*Ivox	*	*Ivox	*	*Ivox	*
*I"Bassus	*	*I"Tenor	*	*I"Altus	*	*I"Superius	*
*I'B	*	*I'T	*	*I'A	*	*I'S	*
*clefF4	*	*clefGv2	*	*clefGv2	*	*clefG2	*
*k[b-]	*	*k[b-]	*	*k[b-]	*	*k[b-]	*
*M2/1	*	*M2/1	*	*M2/1	*	*M2/1	*
*met(C|)	*	*met(C|)	*	*met(C|)	*	*met(C|)	*
!!section: Virgo prudentissima
!!!OMD: Virgo prudentissima
=1-	=1-	=1-	=1-	=1-	=1-	=1-	=1-
0r	.	0r	.	0r	.	0g	Vir-
=2	=2	=2	=2	=2	=2	=2	=2
0r	.	0G	Vir-	0r	.	0b-	-go
=3	=3	=3	=3	=3	=3	=3	=3
0r	.	0B-	-go	0r	.	1g	pru-
.	.	.	.	.	.	1f	-den-
=4	=4	=4	=4	=4	=4	=4	=4
0r	.	1G	pru-	0r	.	1b-	-tis-
.	.	1F	-den-	.	.	1cc	.
=5	=5	=5	=5	=5	=5	=5	=5
0r	.	1B-	-tis-	0r	.	1dd	.
.	.	1c	-si-	.	.	2g/	.
.	.	.	.	.	.	[2a/	.
=6	=6	=6	=6	=6	=6	=6	=6
0r	.	[0d	-ma,	0r	.	2a/]	.
.	.	.	.	.	.	2b-\	.
.	.	.	.	.	.	2a/	.
.	.	.	.	.	.	[2b-\	.
=7	=7	=7	=7	=7	=7	=7	=7
0r	.	0d_	.	0r	.	2b-\]	.
.	.	.	.	.	.	4a/	-si-
.	.	.	.	.	.	4g/	.
.	.	.	.	.	.	1f	-ma,
=8	=8	=8	=8	=8	=8	=8	=8
0r	.	0d_	.	0G	Vir-	0r	.
=9	=9	=9	=9	=9	=9	=9	=9
0GG	Vir-	0d]	.	0B-	-go	0r	.
=10	=10	=10	=10	=10	=10	=10	=10
0BB-	-go	0r	.	1G	pru-	0r	.
.	.	.	.	1F	-den-	.	.
=11	=11	=11	=11	=11	=11	=11	=11
1GG	pru-	0r	.	1B-	-tis-	0r	.
1FF	-den-	.	.	1c	.	.	.
=12	=12	=12	=12	=12	=12	=12	=12
1BB-	-tis-	0r	.	1d	.	0r	.
1C	-si-	.	.	2G/	.	.	.
.	.	.	.	[2A/	.	.	.
=13	=13	=13	=13	=13	=13	=13	=13
[0D	-ma,	0r	.	2A/]	.	0r	.
.	.	.	.	2B-\	.	.	.
.	.	.	.	2A/	.	.	.
.	.	.	.	[2B-\	.	.	.
=14	=14	=14	=14	=14	=14	=14	=14
0D_	.	0r	.	2B-\]	.	0r	.
.	.	.	.	4A/	-si-	.	.
.	.	.	.	4G/	.	.	.
.	.	.	.	1F	-ma,	.	.
=15	=15	=15	=15	=15	=15	=15	=15
0D]	.	0r	.	1r	.	1.dd	quo
.	.	.	.	[1f	quo	.	.
.	.	.	.	.	.	4cc\	.
.	.	.	.	.	.	4b-\	.
=16	=16	=16	=16	=16	=16	=16	=16
1r	.	1.d	quo	1f]	.	1a	.
1G	quo	.	.	1g	pro-	1b-	pro-
.	.	4c\	.	.	.	.	.
.	.	4B-\	.	.	.	.	.
=17	=17	=17	=17	=17	=17	=17	=17
2.F\	pro-	1A	.	2c\	-gre-	1cc	-gre-
.	.	.	.	1f	.	.	.
4E\	.	.	.	.	.	.	.
1D	-gre-	1B-	pro-	.	.	1dd	-de-
.	.	.	.	2d\	-de-	.	.
=18	=18	=18	=18	=18	=18	=18	=18
2.C/	-de-	1c	-gre-	2.e-\	-ris,	1g	-ris,
4BB-/	.	.	.	4d\	.	.	.
[1GG	-ris,	1d	-de-	2B-\	.	2r	.
.	.	.	.	2G/	quo	[2dd\	quo
=19	=19	=19	=19	=19	=19	=19	=19
1GG]	.	1.G	-ris,	2B-\	.	2dd\]	.
.	.	.	.	2c\	.	2cc\	.
1r	.	.	.	2d\	.	2b-\	.
.	.	2F/	quo	[2f\	.	[2cc\	.
=20	=20	=20	=20	=20	=20	=20	=20
1G	quo	1B-	.	2f\]	.	4cc\]	.
.	.	.	.	.	.	4b-\	.
.	.	.	.	4e\	.	1b-	.
.	.	.	.	4d\	.	.	.
1F	.	1c	.	1f	.	.	.
.	.	.	.	.	.	2a/	.
=21	=21	=21	=21	=21	=21	=21	=21
2B-\	.	2d\	.	2r	.	2b-\	.
2.A\	pro-	2.e-i\	pro-	2.c\	pro-	2.cc\	pro-
4B-\	.	4d\	.	4d\	.	4b-\	.
2G\	.	2B-\	.	2e\	.	[2b-\	-gre-
=22	=22	=22	=22	=22	=22	=22	=22
1F	-gre-	1c	-gre-	1f	.	2b-\]	.
.	.	.	.	.	.	2a/	.
2G\	.	2B-\	.	2r	.	2g/	.
[2F\	.	[2c\	.	[2A/	-gre-	[2a/	.
=23	=23	=23	=23	=23	=23	=23	=23
4F\]	.	4c\]	.	4A/]	.	4a/]	.
4G\	.	4B-\	.	4B-\	.	4g/	.
2E\	.	2G/	.	2c\	.	1g	.
1D	-de-	1A	-de-	1d	-de-	.	.
.	.	.	.	.	.	2f#i/	-de-
=24	=24	=24	=24	=24	=24	=24	=24
1.E-	-ris,	[0G	-ris,	1B-	-ris,	[0g	-ris,
.	.	.	.	[1e-i	pro-	.	.
2D\	pro-	.	.	.	.	.	.
=25	=25	=25	=25	=25	=25	=25	=25
2C/	-gre-	0G]	.	2e-\]	.	0g]	.
2BB-/	.	.	.	2d\	.	.	.
2C/	.	.	.	2e-i\	-gre-	.	.
2GG/	.	.	.	[2d\	.	.	.
=26	=26	=26	=26	=26	=26	=26	=26
2.BB-/	-de-	1D	qua-	2d\]	.	0r	.
.	.	.	.	4c\	-de-	.	.
4C/	.	.	.	4B-\	.	.	.
[1D	-ris,	[1F	-si	1A	-ris,	.	.
=27	=27	=27	=27	=27	=27	=27	=27
1D]	.	1F]	.	2r	.	0r	.
.	.	.	.	2.D/	pro-	.	.
1r	.	1F	au-	.	.	.	.
.	.	.	.	4E/	.	.	.
.	.	.	.	4F/	.	.	.
.	.	.	.	4G/	.	.	.
=28	=28	=28	=28	=28	=28	=28	=28
2.D\	qua-	2.F/	-ro-	2A/	.	0r	.
.	.	.	.	2B-\	.	.	.
4E\	.	4G/	.	.	.	.	.
2F\	-si	2A/	.	2A/	-gre-	.	.
2G\	au-	[2B-\	.	2G/	-de-	.	.
=29	=29	=29	=29	=29	=29	=29	=29
2D\	-ro-	2B-\]	.	[0d	-ris,	0r	.
1G	.	4A/	.	.	.	.	.
.	.	4G/	.	.	.	.	.
.	.	1A	.	.	.	.	.
2F#i\	.	.	.	.	.	.	.
=30	=30	=30	=30	=30	=30	=30	=30
0G	-ra,	[0G	-ra,	0d]	.	1g	qua-
.	.	.	.	.	.	[1b-	-si
=31	=31	=31	=31	=31	=31	=31	=31
0r	.	0G_	.	1G	qua-	1b-]	.
.	.	.	.	[1B-	-si	1b-	au-
=32	=32	=32	=32	=32	=32	=32	=32
0r	.	0G_	.	1B-]	.	2.b-\	-ro-
.	.	.	.	.	.	4cc\	.
.	.	.	.	1B-	au-	1dd	.
=33	=33	=33	=33	=33	=33	=33	=33
2.GG/	qua-	0G]	.	2.B-\	-ro-	[0g	-ra,
4AA/	.	.	.	4c\	.	.	.
2BB-/	-si-	.	.	2d\	.	.	.
2C/	-au-	.	.	[2e-i\	.	.	.
=34	=34	=34	=34	=34	=34	=34	=34
2GG/	-ro-	0r	.	2e-\]	.	0g]	.
1C	.	.	.	2c\	.	.	.
.	.	.	.	1d	.	.	.
2BBni/	.	.	.	.	.	.	.
=35	=35	=35	=35	=35	=35	=35	=35
2.C/	-ra,	2r	.	[0c	-ra,	2.e/	qua-
.	.	1G	qua-	.	.	.	.
4D\	.	.	.	.	.	4f/	.
2E\	.	.	.	.	.	2g/	.
2F\	au-	2F/	-si	.	.	[2a/	.
=36	=36	=36	=36	=36	=36	=36	=36
2C/	-ro-	2c\	au-	0c]	.	2a/]	.
1F	.	2A/	.	.	.	2f/	-si
.	.	1G	.	.	.	1g	au-
2E\	.	.	.	.	.	.	.
=37	=37	=37	=37	=37	=37	=37	=37
2.F\	-ra,	2F/	-ro-	0r	.	2.a/	-ro-
.	.	2.f\	.	.	.	.	.
4G\	.	.	.	.	.	4b-\	.
2A\	.	.	.	.	.	2cc\	.
.	.	4e\	.	.	.	.	.
2B-\	au-	2d\	.	.	.	4f/	.
.	.	.	.	.	.	4g/	.
=38	=38	=38	=38	=38	=38	=38	=38
2F\	-ro-	2c\	.	0r	.	2a/	.
1B-	.	2B-\	.	.	.	2d/	.
.	.	1c	-ra,	.	.	1e	.
2A\	.	.	.	.	.	.	.
=39	=39	=39	=39	=39	=39	=39	=39
2B-\	-ra	0r	.	1B-	val-	1d	-ra,
1G	val-	.	.	.	.	.	.
.	.	.	.	1A	-de	1r	.
2F\	-de	.	.	.	.	.	.
=40	=40	=40	=40	=40	=40	=40	=40
1G	ru-	0r	.	2B-\	ru-	1b-	val-
.	.	.	.	2G/	.	.	.
1F	.	.	.	1A	-ti-	1a	-de
=41	=41	=41	=41	=41	=41	=41	=41
1G	-ti-	1B-	val-	1G	-lans?	2b-\	ru-
.	.	.	.	.	.	2g/	.
1F	.	1A	-de	1r	.	1a	-ti-
=42	=42	=42	=42	=42	=42	=42	=42
1G	-lans,	2B-\	ru-	2r	.	1g	-lans?
.	.	2G/	.	2B-\	Fi-	.	.
1F	.	1A	-ti-	2c\	-li-	1r	.
.	.	.	.	2A/	-a	.	.
=43	=43	=43	=43	=43	=43	=43	=43
1G	Fi-	1G	-lans?	2B-\	Si-	2r	.
.	.	.	.	2G/	.	2b-\	Fi-
1F	.	1r	.	1A	.	2cc\	-li-
.	.	.	.	.	.	2a/	-a
=44	=44	=44	=44	=44	=44	=44	=44
1G	-li-	2r	.	2G/	.	2b-\	Si-
.	.	2B-\	Fi-	2d\	.	2g/	.
1F	.	2c\	-li-	4f\	.	4a/	.
.	.	.	.	4e\	.	4g/	.
.	.	2A/	-a	4d\	.	4f/	.
.	.	.	.	4c\	.	4e/	.
=45	=45	=45	=45	=45	=45	=45	=45
2G\	-a	2B-\	Si-	2B-\	.	2d/	.
2E\	.	2G/	.	2c\	.	1g	.
1D	.	1A	.	[1d	-on,	.	.
.	.	.	.	.	.	2f#i/	.
=46	=46	=46	=46	=46	=46	=46	=46
1.GG	Si-	[0G	-on,	1d]	.	2.g/	.
.	.	.	.	.	.	4f/	.
.	.	.	.	1r	.	2d/	.
[2C/	.	.	.	.	.	[2e-/	.
=47	=47	=47	=47	=47	=47	=47	=47
2C/]	.	0G]	.	0r	.	4e-/]	.
.	.	.	.	.	.	4d/	.
2GG/	.	.	.	.	.	2B-/	.
2C/	.	.	.	.	.	2e-i/	.
2BB-/	.	.	.	.	.	[2d/	.
=48	=48	=48	=48	=48	=48	=48	=48
4GG/	.	0r	.	1G	to-	4d/]	.
4AA/	.	.	.	.	.	4c/	.
4BB-/	.	.	.	.	.	2B-/	.
4C/	.	.	.	.	.	.	.
1D	.	.	.	1F	.	1A	-on,
=49	=49	=49	=49	=49	=49	=49	=49
1GG	-on,	1G	to-	1B-	-ta	0r	.
1r	.	1F	.	2c\	for-	.	.
.	.	.	.	[2d\	-mo-	.	.
=50	=50	=50	=50	=50	=50	=50	=50
0r	.	1B-	-ta	2d\]	.	1G	to-
.	.	.	.	4c\	.	.	.
.	.	.	.	4B-\	.	.	.
.	.	1c	for-	1A	.	1F	.
=51	=51	=51	=51	=51	=51	=51	=51
0r	.	[0d	-mo-	2G/	.	1B-	-ta
.	.	.	.	1B-	.	.	.
.	.	.	.	.	.	2G/	for-
.	.	.	.	2G/	.	[2B-/	-mo-
=52	=52	=52	=52	=52	=52	=52	=52
0r	.	0d_	.	2.B-\	.	4B-/]	.
.	.	.	.	.	.	4c/	.
.	.	.	.	.	.	2d/	-sa,
.	.	.	.	4c\	.	.	.
.	.	.	.	2d\	-sa,	2G/	for-
.	.	.	.	2G/	for-	[2B-/	-mo-
=53	=53	=53	=53	=53	=53	=53	=53
0r	.	0d_	.	2.B-\	-mo-	4B-/]	.
.	.	.	.	.	.	4c/	.
.	.	.	.	.	.	2d/	-sa,
.	.	.	.	4c\	.	.	.
.	.	.	.	2d\	-sa,	2B-/	for-
.	.	.	.	2B-\	for-	[2d/	-mo-
=54	=54	=54	=54	=54	=54	=54	=54
0r	.	0d]	.	2.d\	-mo-	4d/]	.
.	.	.	.	.	.	4e/	.
.	.	.	.	.	.	2f/	-sa
.	.	.	.	4e\	.	.	.
.	.	.	.	2f\	-sa	2d/	et
.	.	.	.	2d\	et	[2f/	.
=55	=55	=55	=55	=55	=55	=55	=55
0r	.	1d	-sa,	2.f\	.	4f/]	.
.	.	.	.	.	.	4e/	.
.	.	.	.	.	.	4d/	.
.	.	.	.	4e\	.	4c/	.
.	.	[1d	et	4d\	.	2B-/	.
.	.	.	.	4c\	.	.	.
.	.	.	.	[2B-\	.	2f/	su-
=56	=56	=56	=56	=56	=56	=56	=56
0r	.	2d\]	.	2B-\]	.	2g/	-a-
.	.	2c\	su-	2A/	su-	2a/	.
.	.	2d\	-a-	1G	-a-	2b-\	.
.	.	2e\	.	.	.	2g/	.
=57	=57	=57	=57	=57	=57	=57	=57
1.D	su-	1.f	.	1.F	.	1a	.
.	.	.	.	.	.	1d	-vis,
2E\	.	2e\	.	2G/	.	.	.
=58	=58	=58	=58	=58	=58	=58	=58
1F	-a-	2d\	.	1A	.	0r	.
.	.	2c\	.	.	.	.	.
2.G\	.	2e\	.	1B-	.	.	.
.	.	2d\	.	.	.	.	.
4F\	.	.	.	.	.	.	.
=59	=59	=59	=59	=59	=59	=59	=59
1D	.	1f	.	2A/	.	0r	.
.	.	.	.	2B-\	.	.	.
2C/	.	2e\	.	2G/	.	.	.
2BB-/	.	[2d\	.	2B-\	.	.	.
=60	=60	=60	=60	=60	=60	=60	=60
2C/	.	4d\]	.	2A/	.	0r	.
.	.	4G/	.	.	.	.	.
2E-i\	.	1c	.	1G	.	.	.
1D	-vis,	.	.	.	.	.	.
.	.	2Bni\	-vis,	2F/	-vis	.	.
=61	=61	=61	=61	=61	=61	=61	=61
[0C	es:	0c	es:	[0G	es:	1.e	es:
.	.	.	.	.	.	4d/	.
.	.	.	.	.	.	4c/	.
=62	=62	=62	=62	=62	=62	=62	=62
1C]	.	2r	.	0G]	.	1e	.
.	.	2G/	Pul-	.	.	.	.
2r	.	2G/	-chra	.	.	1d	.
2GG/	Pul-	2G/	ut	.	.	.	.
=63	=63	=63	=63	=63	=63	=63	=63
2GG/	-chra	2.B-\	lu-	1r	.	2r	.
2GG/	ut	.	.	.	.	2d/	Pul-
.	.	4c\	.	.	.	.	.
2.BB-/	lu-	[1d	-na,	2r	.	2d/	-chra
.	.	.	.	2D/	Pul-	2d/	ut
4C/	.	.	.	.	.	.	.
=64	=64	=64	=64	=64	=64	=64	=64
0D	-na,	1d]	.	2D/	-chra	2.f/	lu-
.	.	.	.	2D/	ut	.	.
.	.	.	.	.	.	4g/	.
.	.	2r	.	2.F/	lu-	1a	-na,
.	.	[2d\	e-	.	.	.	.
.	.	.	.	4G/	.	.	.
=65	=65	=65	=65	=65	=65	=65	=65
0r	.	2d\]	.	1A	-na,	2r	.
.	.	2c\	.	.	.	1a	e-
.	.	2d\	-lec-	1r	.	.	.
.	.	2B-\	.	.	.	2g/	.
=66	=66	=66	=66	=66	=66	=66	=66
2r	.	1A	-ta	1r	.	2a/	-lec-
1D	e-	.	.	.	.	2f/	.
.	.	1r	.	2r	.	1e	-ta
2C/	.	.	.	[2A/	e-	.	.
=67	=67	=67	=67	=67	=67	=67	=67
2D\	-lec-	0r	.	2A/]	.	0r	.
2BB-/	.	.	.	2G/	.	.	.
1AA	-ta	.	.	2A/	-lec-	.	.
.	.	.	.	2F/	.	.	.
=68	=68	=68	=68	=68	=68	=68	=68
0r	.	1r	.	1E	-ta	1g	ut
.	.	1G	ut	1r	.	1dd	sol,
=69	=69	=69	=69	=69	=69	=69	=69
1r	.	1d	sol,	1G	ut	2r	.
.	.	.	.	.	.	2.dd\	e-
1GG	ut	1r	.	[1dl	sol.	.	.
.	.	.	.	.	.	4cc\	.
.	.	.	.	.	.	2b-\	.
=70	=70	=70	=70	=70	=70	=70	=70
1D	sol,	2r	.	0d_	.	2a/	.
.	.	2.d\	e-	.	.	2.b-\	-lec-
2r	.	.	.	.	.	.	.
.	.	4c\	.	.	.	4a/	.
2GG/	ut	2B-\	.	.	.	2g/	.
=71	=71	=71	=71	=71	=71	=71	=71
1D	sol,	2A/	.	0d_	.	2f/	-ta
.	.	2.B-\	-lec-	.	.	2.dd\	e-
2r	.	.	.	.	.	.	.
.	.	4A/	.	.	.	4cc\	.
2GG/	ut	2G/	.	.	.	2b-\	.
=72	=72	=72	=72	=72	=72	=72	=72
2D\	sol,	2F/	-ta	0d_	.	4a/	-lec-
.	.	.	.	.	.	4d/	.
2GG/	ut	2G/	.	.	.	1g	-ta
1D	sol,	1A	ut	.	.	.	.
.	.	.	.	.	.	2f#i/	ut
=73	=73	=73	=73	=73	=73	=73	=73
0GGl	sol.	0Gl	sol.	0d]	.	0gl	sol.
==	==	==	==	==	==	==	==
*-	*-	*-	*-	*-	*-	*-	*-
!!!RDF**kern: l=long note in original notation
!!!RDF**kern: i=editorial accidental
!!!RDF**kern: V=start of tuplet marker
!!!RDF**kern: Z=end of tuplet marker
!!!ENC:	Will Watson 13/7/2011/; JR 21 Feb 2013
!!!END:	2013/03/08/
!!!EED:	Jesse Rodin
!!!EEV:	2011/08/10/
!!attribution-level@Jos: 3 (tricky)
!!!ONB:	Translated from MusicXML and edited on 2013/03/08/ by Craig Sapp
!!muse2ps: C^@{COA}?\n@{SCT}^I150v90,90,90,130c70Q16z18
!!muse2ps-notext: C^@{COA}?\n@{SCT}^I150v90,90,90,130c100Q16
!!!ONB: April 2013 Concert
